src/assets/images/icons/confirmation.svg

<?xml version="1.0" encoding="UTF-8"?>
<svg width="14px" height="17px" viewBox="0 0 14 17" version="1.1" xmlns="http://www.w3.org/2000/svg" xmlns:xlink="http://www.w3.org/1999/xlink">
    <!-- Generator: Sketch 53.2 (72643) - https://sketchapp.com -->
    <title>Group 6</title>
    <desc>Created with Sketch.</desc>
    <defs>
        <polygon id="path-1" points="0 0.59 13.9779 0.59 13.9779 17 0 17"></polygon>
    </defs>
    <g id="Page-2" stroke="none" stroke-width="1" fill="none" fill-rule="evenodd">
        <g id="iPhone-8" transform="translate(-96.000000, -418.000000)">
            <g id="Group-6" transform="translate(96.000000, 417.000000)">
                <g id="Group-3" transform="translate(0.000000, 0.410000)">
                    <mask id="mask-2" fill="white">
                        <use xlink:href="#path-1"></use>
                    </mask>
                    <g id="Clip-2"></g>
                    <path d="M7.0129,0.591 L7.0129,0.59 C7.0049,0.59 6.9969,0.591 6.9889,0.591 C6.9809,0.591 6.9729,0.59 6.9649,0.59 L6.9649,0.591 C4.1089,0.587 -0.0001,1.644 -0.0001,3.023 L-0.0001,9.229 C-0.0001,12.845 3.8229,15.526 4.3499,15.952 C5.1029,16.561 5.9839,17.041 6.9649,16.996 L6.9649,17 C6.9729,17 6.9809,16.998 6.9889,16.998 C6.9969,16.998 7.0049,17 7.0129,17 L7.0129,16.996 C7.9939,17.041 8.8749,16.561 9.6279,15.952 C10.1549,15.526 13.9779,12.845 13.9779,9.229 L13.9779,3.023 C13.9779,1.644 9.8689,0.587 7.0129,0.591" id="Fill-1" fill="#42A4A3" mask="url(#mask-2)"></path>
                </g>
                <path d="M6.0681,11.2188 C5.8501,11.2188 5.6311,11.1478 5.4491,11.0038 L3.4121,9.3978 C2.9781,9.0558 2.9031,8.4268 3.2461,7.9928 C3.5881,7.5598 4.2171,7.4868 4.6501,7.8268 L6.0221,8.9088 L9.2741,5.9518 C9.6841,5.5808 10.3161,5.6118 10.6871,6.0198 C11.0581,6.4288 11.0281,7.0608 10.6201,7.4328 L6.7411,10.9588 C6.5501,11.1318 6.3101,11.2188 6.0681,11.2188" id="Fill-4" fill="#FEFEFE"></path>
            </g>
        </g>
    </g>
</svg>

<svg width="14" height="17" viewBox="0 0 14 17" xmlns="http://www.w3.org/2000/svg" xmlns:xlink="http://www.w3.org/1999/xlink"><title>Group 6</title><desc>Created with Sketch.</desc><defs><path id="a" d="M0 .59h13.978v16.41h-13.978z"/></defs><g fill="none"><g transform="translate(0 -.59)"><mask id="b"><use xlink:href="#a"/></mask><path d="M7.013.591v-.001l-.024.001-.024-.001v.001c-2.856-.004-6.965 1.053-6.965 2.432v6.206c0 3.616 3.823 6.297 4.35 6.723.753.609 1.634 1.089 2.615 1.044v.004l.024-.002.024.002v-.004c.981.045 1.862-.435 2.615-1.044.527-.426 4.35-3.107 4.35-6.723v-6.206c0-1.379-4.109-2.436-6.965-2.432" fill="#42A4A3" mask="url(#b)"/></g><path d="M6.068 10.219c-.218 0-.437-.071-.619-.215l-2.037-1.606c-.434-.342-.509-.971-.166-1.405.342-.433.971-.506 1.404-.166l1.372 1.082 3.252-2.957c.41-.371 1.042-.34 1.413.068.371.409.341 1.041-.067 1.413l-3.879 3.526c-.191.173-.431.26-.673.26" fill="#FEFEFE"/></g></svg>
